src/components/common/icons/comment.svg

<svg height="41" viewBox="0 0 55 41" width="55" xmlns="http://www.w3.org/2000/svg"><g fill="#010202" fill-rule="evenodd" transform="translate(0 -1)"><path d="m43.5724559 5.15856923c3.7480882 0 6.6889706 2.93353846 6.6889706 6.68123077v16.0294615c0 3.8672308-2.8130883 6.6747693-6.6922059 6.6747693l-2.672353.0016154c-2.42 0-4.73.7156153-6.6873529 2.0418461-1.9589706-1.3262308-4.2689706-2.0418461-6.6889706-2.0418461h-2.6755882l-13.3763235-.0016154c-3.8758824 0-6.68897064-2.8075385-6.68897064-6.6747693v-16.0294615c0-3.74769231 2.93764706-6.68123077 6.68897064-6.68123077zm0-4.00615385h-32.1038235c-5.98852946 0-10.70073534 4.70723077-10.70073534 10.68738462v16.0294615c0 6.0528462 4.60867647 10.6809231 10.70073534 10.6809231l13.3763235.0048462h2.6755882c2.1110294 0 4.0942647.8173846 5.587353 2.301923l1.1016176 1.0952308 1.1-1.0952308c1.4914706-1.4845384 3.4763235-2.301923 5.5873529-2.301923l2.6755883-.0048462c6.0920588 0 10.7007353-4.6280769 10.7007353-10.6809231v-16.0294615c0-5.98015385-4.7122059-10.68738462-10.7007353-10.68738462z"/><path d="m12.0029412 16.5124615h31.0329412v-4.0061538h-31.0329412z"/><path d="m12.0029412 27.1982308h31.0329412v-4.0061539h-31.0329412z"/></g></svg>

<?xml version="1.0" encoding="UTF-8"?>
<svg width="55px" height="41px" viewBox="0 0 55 41" version="1.1" xmlns="http://www.w3.org/2000/svg" xmlns:xlink="http://www.w3.org/1999/xlink">
    <!-- Generator: Sketch 52.5 (67469) - http://www.bohemiancoding.com/sketch -->
    <title>Icons/.comment</title>
    <desc>Created with Sketch.</desc>
    <g id="Vapaaehtoisalusta-Layouts" stroke="none" stroke-width="1" fill="none" fill-rule="evenodd">
        <g id="HKI-Ikonit" transform="translate(-742.000000, -662.000000)" fill="#010202">
            <g id="Icons/.comment" transform="translate(742.000000, 661.000000)">
                <path d="M43.5724559,5.15856923 C47.3205441,5.15856923 50.2614265,8.09210769 50.2614265,11.8398 L50.2614265,27.8692615 C50.2614265,31.7364923 47.4483382,34.5440308 43.5692206,34.5440308 L40.8968676,34.5456462 C38.4768676,34.5456462 36.1668676,35.2612615 34.2095147,36.5874923 C32.2505441,35.2612615 29.9405441,34.5456462 27.5205441,34.5456462 L24.8449559,34.5456462 L11.4686324,34.5440308 C7.59275,34.5440308 4.77966176,31.7364923 4.77966176,27.8692615 L4.77966176,11.8398 C4.77966176,8.09210769 7.71730882,5.15856923 11.4686324,5.15856923 L43.5724559,5.15856923 Z M43.5724559,1.15241538 L11.4686324,1.15241538 C5.48010294,1.15241538 0.767897059,5.85964615 0.767897059,11.8398 L0.767897059,27.8692615 C0.767897059,33.9221077 5.37657353,38.5501846 11.4686324,38.5501846 L24.8449559,38.5550308 L27.5205441,38.5550308 C29.6315735,38.5550308 31.6148088,39.3724154 33.1078971,40.8569538 L34.2095147,41.9521846 L35.3095147,40.8569538 C36.8009853,39.3724154 38.7858382,38.5550308 40.8968676,38.5550308 L43.5724559,38.5501846 C49.6645147,38.5501846 54.2731912,33.9221077 54.2731912,27.8692615 L54.2731912,11.8398 C54.2731912,5.85964615 49.5609853,1.15241538 43.5724559,1.15241538 Z" id="Fill-28"></path>
                <polygon id="Fill-30" points="12.0029412 16.5124615 43.0358824 16.5124615 43.0358824 12.5063077 12.0029412 12.5063077"></polygon>
                <polygon id="Fill-32" points="12.0029412 27.1982308 43.0358824 27.1982308 43.0358824 23.1920769 12.0029412 23.1920769"></polygon>
            </g>
        </g>
    </g>
</svg>
